img/sto.svg

<svg width="100%" height="100%" viewBox="0 0 776 339" fill="none" xmlns="http://www.w3.org/2000/svg">
<path d="M56.4628 3.96419L7.8717 27.3576V55.0418L50.4816 34.7634V140.409H80.3494V3.96419H56.4501H56.4628ZM114.013 72.1928C114.013 116.052 142.884 142.748 187.692 142.748C232.5 142.748 261.167 116.04 261.167 72.1928C261.167 28.3333 232.488 1.62485 187.692 1.62485C142.884 1.62485 114.013 28.3333 114.013 72.1928V72.1928ZM143.881 72.1928C143.881 42.9573 160.802 25.6062 187.692 25.6062C214.569 25.6062 231.299 42.9573 231.299 72.1928C231.299 101.428 214.569 118.779 187.692 118.779C160.815 118.779 143.881 101.428 143.881 72.1928V72.1928ZM282.676 72.1928C282.676 116.052 311.547 142.748 356.355 142.748C401.163 142.748 429.83 116.04 429.83 72.1928C429.83 28.3333 401.151 1.62485 356.355 1.62485C311.547 1.62485 282.676 28.3333 282.676 72.1928V72.1928ZM312.544 72.1928C312.544 42.9573 329.465 25.6062 356.355 25.6062C383.233 25.6062 399.962 42.9573 399.962 72.1928C399.962 101.428 383.233 118.779 356.355 118.779C329.478 118.779 312.544 101.428 312.544 72.1928V72.1928ZM464.081 37.1027C464.081 57.9566 482 71.6049 510.283 71.6049C538.553 71.6049 556.279 57.9566 556.279 37.1027C556.279 16.449 538.553 2.80077 510.283 2.80077C482 2.80077 464.081 16.449 464.081 37.1027V37.1027ZM490.767 140.409H510.679L643.902 3.96419H624.182L490.767 140.409ZM485.195 37.1027C485.195 25.6062 495.547 18.5882 510.283 18.5882C524.814 18.5882 535.179 25.6062 535.179 37.1027C535.179 48.7994 524.827 55.6173 510.283 55.6173C495.547 55.6173 485.195 48.7994 485.195 37.1027V37.1027ZM578.389 107.27C578.389 127.924 596.308 141.572 624.591 141.572C652.669 141.572 670.587 127.924 670.587 107.27C670.587 86.4165 652.669 72.7683 624.591 72.7683C596.308 72.7683 578.389 86.4165 578.389 107.27V107.27ZM599.503 107.27C599.503 95.5737 609.855 88.7559 624.591 88.7559C639.122 88.7559 649.282 95.5737 649.282 107.27C649.282 118.767 639.122 125.785 624.591 125.785C609.855 125.785 599.503 118.767 599.503 107.27Z" stroke="black" stroke-width="2" stroke-linejoin="bevel"/>
<path d="M135.525 274.802V196.641H27.5943C24.2075 237.573 22.4182 260.766 13.8553 274.802H1.90564V325.68H29.9842V298.783H125.173V325.68H153.251V274.802H135.525V274.802ZM106.053 274.802H41.5377C47.5062 261.354 49.3082 247.118 52.0943 220.609H106.066V274.802H106.053ZM164 247.706C164 281.62 192.474 301.11 235.289 301.11C277.899 301.11 306.373 281.62 306.373 247.706C306.373 213.792 277.899 194.301 235.289 194.301C192.474 194.301 164 213.792 164 247.706V247.706ZM193.471 247.706C193.471 229.779 208.808 216.319 235.289 216.319C261.77 216.319 277.106 229.767 277.106 247.706C277.106 265.645 261.77 279.093 235.289 279.093C208.808 279.093 193.471 265.645 193.471 247.706ZM401.562 200.531C374.276 200.531 355.565 210.864 347.194 227.427C351.974 190.398 370.889 185.319 397.178 182.98C408.131 182.204 414.905 181.816 424.656 181.028C435.814 180.053 445.373 178.489 452.339 175.574V152.969C442.574 155.696 434.42 156.472 421.269 157.848C408.924 159.011 395.772 159.987 382.238 162.526C341.021 169.932 324.688 191.574 324.688 233.87C324.688 283.571 355.361 301.11 395.772 301.11C440.184 301.11 467.062 281.232 467.062 250.821C467.062 220.409 440.376 200.531 401.549 200.531H401.562ZM395.785 279.08C369.7 279.08 354.172 268.159 354.172 250.821C354.172 233.47 369.7 222.561 395.785 222.561C422.075 222.561 437.807 233.482 437.807 250.821C437.807 268.172 422.075 279.08 395.785 279.08ZM567.247 194.289C545.546 194.289 527.027 201.107 517.071 217.094V196.628H489.785V337.752H519.461V281.42C529.813 294.868 547.54 301.11 567.656 301.11C602.905 301.11 628.593 281.42 628.593 247.706C628.593 213.992 602.905 194.301 567.26 194.301L567.247 194.289ZM558.684 279.08C533.392 279.08 518.055 266.408 518.055 247.693C518.055 228.979 533.392 216.306 558.684 216.306C583.772 216.306 599.313 228.979 599.313 247.693C599.313 266.408 583.785 279.08 558.684 279.08ZM712.816 194.289C682.744 194.101 655.47 202.67 652.275 228.14H680.149C683.536 218.821 695.281 214.167 712.803 214.167C734.914 214.167 744.461 222.899 744.461 234.57V236.297L703.244 238.836C665.81 241.176 644.492 249.357 644.492 270.474C644.492 287.85 659.432 301.11 692.086 301.11C718.376 301.11 736.69 291.753 746.646 277.141V298.783H774.124V240.6C774.124 209.313 752.014 194.501 712.791 194.301L712.816 194.289ZM700.074 281.22C682.348 281.22 673.989 276.153 673.989 268.91C673.989 260.266 685.735 256.563 707.052 255.199L744.486 252.66V256.162C744.486 269.485 727.961 281.207 700.074 281.207V281.22Z" stroke="black" stroke-width="2" stroke-linejoin="bevel"/>
</svg>

<svg viewBox="0 0 776 339" fill="none" xmlns="http://www.w3.org/2000/svg"><path d="M56.463 3.964L7.872 27.358v27.684l42.61-20.279V140.41h29.867V3.964H56.45h.013zm57.55 68.229c0 43.859 28.871 70.555 73.679 70.555 44.808 0 73.475-26.708 73.475-70.555 0-43.86-28.679-70.568-73.475-70.568-44.808 0-73.679 26.708-73.679 70.568zm29.868 0c0-29.236 16.921-46.587 43.811-46.587 26.877 0 43.607 17.351 43.607 46.587 0 29.235-16.73 46.586-43.607 46.586s-43.811-17.351-43.811-46.586zm138.795 0c0 43.859 28.871 70.555 73.679 70.555 44.808 0 73.475-26.708 73.475-70.555 0-43.86-28.679-70.568-73.475-70.568-44.808 0-73.679 26.708-73.679 70.568zm29.868 0c0-29.236 16.921-46.587 43.811-46.587 26.878 0 43.607 17.351 43.607 46.587 0 29.235-16.729 46.586-43.607 46.586-26.877 0-43.811-17.351-43.811-46.586zm151.537-35.09c0 20.854 17.919 34.502 46.202 34.502 28.27 0 45.996-13.648 45.996-34.502 0-20.654-17.726-34.302-45.996-34.302-28.283 0-46.202 13.648-46.202 34.302zm26.686 103.306h19.912L643.902 3.964h-19.72L490.767 140.41zm-5.572-103.306c0-11.497 10.352-18.515 25.088-18.515 14.531 0 24.896 7.018 24.896 18.515 0 11.696-10.352 18.514-24.896 18.514-14.736 0-25.088-6.818-25.088-18.514zm93.194 70.167c0 20.654 17.919 34.302 46.202 34.302 28.078 0 45.996-13.648 45.996-34.302 0-20.853-17.918-34.502-45.996-34.502-28.283 0-46.202 13.648-46.202 34.502zm21.114 0c0-11.696 10.352-18.514 25.088-18.514 14.531 0 24.691 6.818 24.691 18.514 0 11.497-10.16 18.515-24.691 18.515-14.736 0-25.088-7.018-25.088-18.515zM135.525 274.802v-78.161H27.595c-3.387 40.932-5.177 64.125-13.74 78.161H1.905v50.878h28.08v-26.897h95.188v26.897h28.078v-50.878h-17.726zm-29.472 0H41.538c5.968-13.448 7.77-27.684 10.556-54.193h53.972v54.193h-.013zM164 247.706c0 33.914 28.474 53.404 71.289 53.404 42.61 0 71.084-19.49 71.084-53.404s-28.474-53.405-71.084-53.405c-42.815 0-71.289 19.491-71.289 53.405zm29.471 0c0-17.927 15.337-31.387 41.818-31.387 26.481 0 41.817 13.448 41.817 31.387s-15.336 31.387-41.817 31.387-41.818-13.448-41.818-31.387zm208.091-47.175c-27.286 0-45.997 10.333-54.368 26.896 4.78-37.029 23.695-42.108 49.984-44.447 10.953-.776 17.727-1.164 27.478-1.952 11.158-.975 20.717-2.539 27.683-5.454v-22.605c-9.765 2.727-17.919 3.503-31.07 4.879-12.345 1.163-25.497 2.139-39.031 4.678-41.217 7.406-57.55 29.048-57.55 71.344 0 49.701 30.673 67.24 71.084 67.24 44.412 0 71.29-19.878 71.29-50.289 0-30.412-26.686-50.29-65.513-50.29h.013zm-5.777 78.549c-26.085 0-41.613-10.921-41.613-28.259 0-17.351 15.528-28.26 41.613-28.26 26.29 0 42.022 10.921 42.022 28.26 0 17.351-15.732 28.259-42.022 28.259zm171.462-84.791c-21.701 0-40.22 6.818-50.176 22.805v-20.466h-27.286v141.124h29.676V281.42c10.352 13.448 28.079 19.69 48.195 19.69 35.249 0 60.937-19.69 60.937-53.404s-25.688-53.405-61.333-53.405l-.013-.012zm-8.563 84.791c-25.292 0-40.629-12.672-40.629-31.387 0-18.714 15.337-31.387 40.629-31.387 25.088 0 40.629 12.673 40.629 31.387 0 18.715-15.528 31.387-40.629 31.387zm154.132-84.791c-30.072-.188-57.346 8.381-60.541 33.851h27.874c3.387-9.319 15.132-13.973 32.654-13.973 22.111 0 31.658 8.732 31.658 20.403v1.727l-41.217 2.539c-37.434 2.34-58.752 10.521-58.752 31.638 0 17.376 14.94 30.636 47.594 30.636 26.29 0 44.604-9.357 54.56-23.969v21.642h27.478V240.6c0-31.287-22.11-46.099-61.333-46.299l.025-.012zm-12.742 86.931c-17.726 0-26.085-5.067-26.085-12.31 0-8.644 11.746-12.347 33.063-13.711l37.434-2.539v3.502c0 13.323-16.525 25.045-44.412 25.045v.013z" stroke="#000" stroke-width="2" stroke-linejoin="bevel"/></svg>
